!!!COM: (Achille-) Claude Debussy
!!!OTL: [T169_Deb-w13p37m77-90]
**kern	**dynam	**kern	**dynam	**kern	**dynam	**kern	**dynam
*grp:A	*grp:A	*grp:B	*grp:B	*grp:B	*grp:B	*grp:B	*grp:B
*part4	*part4	*part3	*part3	*part2	*part2	*part1	*part1
*staff4	*	*staff3	*	*staff2	*	*staff1	*
*I"Violoncello	*	*I"Viola	*	*I"Violin II	*	*I"Violin I	*
*I'Vc.	*	*I'Vla.	*	*I'Vln. II	*	*I'Vln. I	*
*clefF4	*	*clefC3	*	*clefG2	*	*clefG2	*
*k[b-e-]	*	*k[b-e-]	*	*k[b-e-]	*	*k[b-e-]	*
*B-:	*	*B-:	*	*B-:	*	*B-:	*
*M4/4	*	*M4/4	*	*M4/4	*	*M4/4	*
=77	=77	=77	=77	=77	=77	=77	=77
!	!	!	!	!	!	!LO:TX:t=[[half]=132]	!
*tuplet	*	*	*	*	*	*	*
!LO:TUP:xbr	!	!	!	!	!	!	!
(6GG-X	p	(2C	p	1e- 1g-X	p	(4.B-~	p
6AA-X	.	.	.	.	.	.	.
6GG-)	.	.	.	.	.	.	.
.	.	.	.	.	.	8c)	.
!LO:TUP:xbr	!	!	!	!	!	!	!
(6AA-	.	2E-X)	.	.	.	(4.A-X~	.
6GG-	.	.	.	.	.	.	.
6AA-)	.	.	.	.	.	.	.
.	.	.	.	.	.	8c)	.
=78	=78	=78	=78	=78	=78	=78	=78
*Xtuplet	*	*	*	*	*	*	*
(6GG-X	.	(2G-X	.	1B- 1b-	.	2e-	.
6AA-X	.	.	.	.	.	.	.
6GG-)	.	.	.	.	.	.	.
(6AA-	.	2D-X)	.	.	.	(4f	.
6GG-	.	.	.	.	.	.	.
.	.	.	.	.	.	4d-X)	.
6AA-)	.	.	.	.	.	.	.
=79	=79	=79	=79	=79	=79	=79	=79
(6GG-X	.	(2C	.	1e- 1g-X	.	(4.B-	.
6AA-X	.	.	.	.	.	.	.
6GG-)	.	.	.	.	.	.	.
.	.	.	.	.	.	8c)	.
(6AA-	.	2E-)	.	.	.	(4.A-X~	.
6GG-	.	.	.	.	.	.	.
6AA-)	.	.	.	.	.	.	.
.	.	.	.	.	.	8c)	.
=80	=80	=80	=80	=80	=80	=80	=80
(6GG-X	.	(2G-X	.	1d-X 1b-	.	1B-	.
6AA-X	.	.	.	.	.	.	.
6GG-)	.	.	.	.	.	.	.
(6AA-	.	2D-X)	.	.	.	.	.
6GG-	.	.	.	.	.	.	.
6AA-)	.	.	.	.	.	.	.
!!linebreak:original
=81	=81	=81	=81	=81	=81	=81	=81
!	!LO:HP:t=poco a poco cresc.	!	!LO:HP:t=poco a poco cresc.	!	!LO:HP:t=poco a poco %s	!	!LO:HP:t=poco a poco %s
(6GG-X	<	(2C	<	(4.B-	<	1e- 1g-X	<
6AA-X	.	.	.	.	.	.	.
6GG-)	.	.	.	.	.	.	.
.	.	.	.	8c)	.	.	.
(6AA-	.	2E-)	.	(4.A-X	.	.	.
6GG-	.	.	.	.	.	.	.
6AA-)	.	.	.	.	.	.	.
.	.	.	.	8c)	.	.	.
=82	=82	=82	=82	=82	=82	=82	=82
*grp:B	*grp:B	*grp:A	*grp:A	*	*	*	*
!	!	!LO:TUP:xbr	!	!	!	!	!
1GG-X	.	(6D-X	.	2e-	.	[1B- [1b-	.
.	.	6E-	.	.	.	.	.
.	.	6D-)	.	.	.	.	.
!	!	!LO:TUP:xbr	!	!	!	!	!
.	.	(6E-	.	(4f	.	.	.
.	.	6D-	.	.	.	.	.
.	.	.	.	4d-X)	.	.	.
.	.	6E-)	.	.	.	.	.
=83	=83	=83	=83	=83	=83	=83	=83
*	*	*Xtuplet	*	*	*	*	*
1GGn	.	(6D-X	.	2e-	.	1B-] 1b-]	.
.	.	6E-	.	.	.	.	.
.	.	6D-)	.	.	.	.	.
.	.	(6E-	.	(4f	.	.	.
.	.	6D-	.	.	.	.	.
.	.	.	.	4d-X)	.	.	.
.	.	6E-)	.	.	.	.	.
=84	=84	=84	=84	=84	=84	=84	=84
1AA-X	<	(6D-X	<	2e-	<	1c-X 1cc-X	<
.	.	6E-	.	.	.	.	.
.	.	6D-)	.	.	.	.	.
.	.	(6E-	.	(4f	.	.	.
.	.	6D-	.	.	.	.	.
.	.	.	.	4d-X)	.	.	.
.	.	6E-)	.	.	.	.	.
=85	=85	=85	=85	=85	=85	=85	=85
2.AAn	.	(6D-X	.	2e-	.	1cn 1ccn	.
.	.	6E-	.	.	.	.	.
.	.	6F)	.	.	.	.	.
.	.	(6A	.	(4f	.	.	.
.	.	6c	.	.	.	.	.
4r	[	.	.	4a)	.	.	.
.	.	6e-)	[	.	[	.	[
!!linebreak:original
=86	=86	=86	=86	=86	=86	=86	=86
.	.	.	.	.	.	(16qqf/LL	f
.	.	.	.	.	.	16qqb-/JJ	.
*tuplet	*	*	*	*	*	*	*
*grp:A	*grp:A	*grp:B	*grp:B	*	*	*	*
!LO:TUP:xbr	!	!	!	!	!	!	!
(6B-	f	(4.d-X	f	(8b-L	f	(4.dd-X)	.
.	.	.	.	8f	.	.	.
6d-X	.	.	.	.	.	.	.
.	.	.	.	8b-	.	.	.
6B-)	.	.	.	.	.	.	.
.	.	8e-)	.	8fJ)	.	8ee-)	.
!LO:TUP:xbr	!	!	!	!	!	!	!
(6A-X	.	(4.c	.	(8a-XL	.	(4.cc	.
.	.	.	.	8e-	.	.	.
6c	.	.	.	.	.	.	.
.	.	.	.	8a-	.	.	.
6A-)	.	.	.	.	.	.	.
.	.	8e-)	.	8e-J)	.	8ee-)	.
=87	=87	=87	=87	=87	=87	=87	=87
!LO:TUP:xbr	!	!	!	!	!	!	!
(6E-	.	2g-X	.	(8g-XL	.	2gg-X	.
.	.	.	.	8e-	.	.	.
6B-	.	.	.	.	.	.	.
.	.	.	.	8g-	.	.	.
6E-)	.	.	.	.	.	.	.
.	.	.	.	8e-J)	.	.	.
*grp:B	*grp:B	*	*	*	*	*	*
4D-X	.	4a-X'	.	(8fL	.	4aa-X'	.
.	.	.	.	8d-X	.	.	.
4F	.	4f'	.	8a-X	.	4ff'	.
.	.	.	.	8fJ)	.	.	.
=88	=88	=88	=88	=88	=88	=88	=88
.	.	.	.	.	.	(16qqf/LL	.
.	.	.	.	.	.	16qqb-/JJ	.
*grp:A	*grp:A	*	*	*	*	*	*
!LO:TUP:xbr	!	!	!	!	!	!	!
(6B-	.	(4.d-X	.	(8b-L	.	(4.dd-X)	.
.	.	.	.	8f	.	.	.
6d-X	.	.	.	.	.	.	.
.	.	.	.	8b-	.	.	.
6B-)	.	.	.	.	.	.	.
.	.	8e-)	.	8fJ)	.	8ee-)	.
!LO:TUP:xbr	!	!	!	!	!	!	!
(6A-X	.	(4.c	.	(8a-XL	.	(4.cc	.
.	.	.	.	8e-	.	.	.
6c	.	.	.	.	.	.	.
.	.	.	.	8a-	.	.	.
6A-)	.	.	.	.	.	.	.
.	.	8e-)	.	8e-J)	.	8ee-)	.
=89	=89	=89	=89	=89	=89	=89	=89
!LO:TUP:xbr	!	!	!	!	!	!	!
(6E-	<	2g-X	<	(8g-XL	<	2gg-X	<
.	.	.	.	8e-	.	.	.
6B-	.	.	.	.	.	.	.
.	.	.	.	8g-	.	.	.
6E-)	.	.	.	.	.	.	.
.	.	.	.	8e-J)	.	.	.
*grp:B	*grp:B	*	*	*	*	*	*
4D-X	.	4a-X~	.	(8fL	.	4aa-X~	.
.	.	.	.	8d-X	.	.	.
4F	.	4f~	.	8a-X	.	4ff~	.
.	[	.	[	8fJ)	[	.	[
=90	=90	=90	=90	=90	=90	=90	=90
[1c-X^	ff	(8fL	ff	(8ddnL	ff	[1bb-^	ff
.	.	8g-X	.	8ee-	.	.	.
.	.	8f	.	8dd	.	.	.
.	.	8g-J	.	8ee-J	.	.	.
.	.	8fL	.	8ddL	.	.	.
.	.	8g-	.	8ee-	.	.	.
.	.	8f	.	8dd	.	.	.
.	.	8g-J)	.	8ee-J)	.	.	.
=	=	=	=	=	=	=	=
*-	*-	*-	*-	*-	*-	*-	*-
!!!system-decoration: [(s1,s2,s3,s4)]
!!!RDF**kern: > = above
!!!RDF**kern: < = below
!!!EED: Daniel Wright
!!!EEV: 2021/10/15
